%
O1000 (BODYHOLES)
(BODYHOLES.NC)
(COMPENSATION-WEAR)
(Post Rev 1.0)
(JUL-30-2015-3:56:12PM)
(TOOL 1 - DIA 2.)

(F-contour1)
S1000 M03 
G00 G54 G90 X0. Y-15.55 A9.291 
G43 H1 Z2. 
G01 G94 Z-1. F50. 
Y-15.5407 A9.082 F200. 
Y-15.5136 A8.889 
Y-15.4706 A8.725 
Y-15.415 A8.604 
Y-15.3509 A8.533 
Y-15.2829 A8.519 
Y-15.2163 A8.562 
Y-15.1558 A8.659 
Y-15.1061 A8.803 
Y-15.0707 A8.983 
Y-15.0523 A9.186 
A9.397 
Y-15.0707 A9.6 
Y-15.1061 A9.78 
Y-15.1558 A9.924 
Y-15.2163 A10.021 
Y-15.2829 A10.064 
Y-15.3509 A10.049 
Y-15.415 A9.979 
Y-15.4706 A9.857 
Y-15.5136 A9.693 
Y-15.5407 A9.5 
Y-15.55 A9.291 
Z-2. F50. 
Y-15.5407 A9.082 F200. 
Y-15.5136 A8.889 
Y-15.4706 A8.725 
Y-15.415 A8.604 
Y-15.3509 A8.533 
Y-15.2829 A8.519 
Y-15.2163 A8.562 
Y-15.1558 A8.659 
Y-15.1061 A8.803 
Y-15.0707 A8.983 
Y-15.0523 A9.186 
A9.397 
Y-15.0707 A9.6 
Y-15.1061 A9.78 
Y-15.1558 A9.924 
Y-15.2163 A10.021 
Y-15.2829 A10.064 
Y-15.3509 A10.049 
Y-15.415 A9.979 
Y-15.4706 A9.857 
Y-15.5136 A9.693 
Y-15.5407 A9.5 
Y-15.55 A9.291 
Y-15.5407 A9.082 
Y-15.5136 A8.889 
Y-15.4706 A8.725 
Y-15.415 A8.604 
Y-15.3509 A8.533 
Y-15.2829 A8.519 
Y-15.2163 A8.562 
Y-15.1558 A8.659 
Y-15.1061 A8.803 
Y-15.0707 A8.983 
Y-15.0523 A9.186 
A9.397 
Y-15.0707 A9.6 
Y-15.1061 A9.78 
Y-15.1558 A9.924 
Y-15.2163 A10.021 
Y-15.2829 A10.064 
Y-15.3509 A10.049 
Y-15.415 A9.979 
Y-15.4706 A9.857 
Y-15.5136 A9.693 
Y-15.5407 A9.5 
Y-15.55 A9.291 
G00 Z2. 
Y-21.8 A99.292 
G01 Z-1. F50. 
Y-21.7616 A98.084 F200. 
Y-21.6478 A96.922 
Y-21.4629 A95.851 
Y-21.2142 A94.912 
Y-20.9111 A94.142 
Y-20.5654 A93.569 
Y-20.1902 A93.217 
Y-19.8 A93.098 
Y-19.4098 A93.217 
Y-19.0346 A93.569 
Y-18.6889 A94.142 
Y-18.3858 A94.912 
Y-18.1371 A95.851 
Y-17.9522 A96.922 
Y-17.8384 A98.084 
Y-17.8 A99.292 
Y-17.8384 A100.501 
Y-17.9522 A101.662 
Y-18.1371 A102.733 
Y-18.3858 A103.672 
Y-18.6889 A104.442 
Y-19.0346 A105.015 
Y-19.4098 A105.367 
Y-19.8 A105.486 
Y-20.1902 A105.367 
Y-20.5654 A105.015 
Y-20.9111 A104.442 
Y-21.2142 A103.672 
Y-21.4629 A102.733 
Y-21.6478 A101.662 
Y-21.7616 A100.501 
Y-21.8 A99.292 
Z-2. F50. 
Y-21.7616 A98.084 F200. 
Y-21.6478 A96.922 
Y-21.4629 A95.851 
Y-21.2142 A94.912 
Y-20.9111 A94.142 
Y-20.5654 A93.569 
Y-20.1902 A93.217 
Y-19.8 A93.098 
Y-19.4098 A93.217 
Y-19.0346 A93.569 
Y-18.6889 A94.142 
Y-18.3858 A94.912 
Y-18.1371 A95.851 
Y-17.9522 A96.922 
Y-17.8384 A98.084 
Y-17.8 A99.292 
Y-17.8384 A100.501 
Y-17.9522 A101.662 
Y-18.1371 A102.733 
Y-18.3858 A103.672 
Y-18.6889 A104.442 
Y-19.0346 A105.015 
Y-19.4098 A105.367 
Y-19.8 A105.486 
Y-20.1902 A105.367 
Y-20.5654 A105.015 
Y-20.9111 A104.442 
Y-21.2142 A103.672 
Y-21.4629 A102.733 
Y-21.6478 A101.662 
Y-21.7616 A100.501 
Y-21.8 A99.292 
Y-21.7616 A98.084 
Y-21.6478 A96.922 
Y-21.4629 A95.851 
Y-21.2142 A94.912 
Y-20.9111 A94.142 
Y-20.5654 A93.569 
Y-20.1902 A93.217 
Y-19.8 A93.098 
Y-19.4098 A93.217 
Y-19.0346 A93.569 
Y-18.6889 A94.142 
Y-18.3858 A94.912 
Y-18.1371 A95.851 
Y-17.9522 A96.922 
Y-17.8384 A98.084 
Y-17.8 A99.292 
Y-17.8384 A100.501 
Y-17.9522 A101.662 
Y-18.1371 A102.733 
Y-18.3858 A103.672 
Y-18.6889 A104.442 
Y-19.0346 A105.015 
Y-19.4098 A105.367 
Y-19.8 A105.486 
Y-20.1902 A105.367 
Y-20.5654 A105.015 
Y-20.9111 A104.442 
Y-21.2142 A103.672 
Y-21.4629 A102.733 
Y-21.6478 A101.662 
Y-21.7616 A100.501 
Y-21.8 A99.292 
G00 Z2. 
Y-9.2917 A146.752 
G01 Z-1. F50. 
Y-9.1689 A146.8 F200. 
Y-9.0524 A146.929 
Y-9.0389 A146.949 
Y-8.844 A147.301 
Y-8.6721 A147.753 
Y-8.6595 A147.792 
Y-8.4375 A148.564 
Y-8.2513 A149.422 
Y-8.2454 A149.453 
Y-8.034 A150.71 
Y-7.869 A152.033 
Y-7.8659 A152.062 
Y-7.7072 A153.757 
Y-7.5944 A155.487 
Y-7.5281 A157.24 
Y-7.5275 A157.263 
Y-7.5009 A159.319 
Y-7.5306 A161.375 
Y-7.6163 A163.416 
Y-7.7574 A165.428 
Y-7.9196 A166.982 
Y-8.1287 A168.481 
Y-8.364 A169.696 
Y-8.6557 A170.786 
Y-8.8361 A171.258 
Y-9.0376 A171.639 
Y-9.2002 A171.802 
Y-9.3709 A171.822 
Y-9.5143 A171.708 
Y-9.6469 A171.504 
Y-9.663 A171.473 
Y-9.867 A171.014 
Y-10.0448 A170.461 
Y-10.0549 A170.424 
Y-10.2799 A169.514 
Y-10.4649 A168.52 
Y-10.4695 A168.492 
Y-10.6972 A166.875 
Y-10.8634 A165.187 
Y-10.8652 A165.165 
Y-11.0174 A162.786 
Y-11.0916 A160.372 
Y-11.087 A157.947 
Y-11.0038 A155.536 
Y-10.8427 A153.163 
Y-10.6805 A151.608 
Y-10.4713 A150.108 
Y-10.236 A148.894 
Y-9.9443 A147.803 
Y-9.7655 A147.335 
Y-9.5658 A146.956 
Y-9.4322 A146.811 
Y-9.2917 A146.752 
Z-2. F50. 
Y-9.1689 A146.8 F200. 
Y-9.0524 A146.929 
Y-9.0389 A146.949 
Y-8.844 A147.301 
Y-8.6721 A147.753 
Y-8.6595 A147.792 
Y-8.4375 A148.564 
Y-8.2513 A149.422 
Y-8.2454 A149.453 
Y-8.034 A150.71 
Y-7.869 A152.033 
Y-7.8659 A152.062 
Y-7.7072 A153.757 
Y-7.5944 A155.487 
Y-7.5281 A157.24 
Y-7.5275 A157.263 
Y-7.5009 A159.319 
Y-7.5306 A161.375 
Y-7.6163 A163.416 
Y-7.7574 A165.428 
Y-7.9196 A166.982 
Y-8.1287 A168.481 
Y-8.364 A169.696 
Y-8.6557 A170.786 
Y-8.8361 A171.258 
Y-9.0376 A171.639 
Y-9.2002 A171.802 
Y-9.3709 A171.822 
Y-9.5143 A171.708 
Y-9.6469 A171.504 
Y-9.663 A171.473 
Y-9.867 A171.014 
Y-10.0448 A170.461 
Y-10.0549 A170.424 
Y-10.2799 A169.514 
Y-10.4649 A168.52 
Y-10.4695 A168.492 
Y-10.6972 A166.875 
Y-10.8634 A165.187 
Y-10.8652 A165.165 
Y-11.0174 A162.786 
Y-11.0916 A160.372 
Y-11.087 A157.947 
Y-11.0038 A155.536 
Y-10.8427 A153.163 
Y-10.6805 A151.608 
Y-10.4713 A150.108 
Y-10.236 A148.894 
Y-9.9443 A147.803 
Y-9.7655 A147.335 
Y-9.5658 A146.956 
Y-9.4322 A146.811 
Y-9.2917 A146.752 
Y-9.1689 A146.8 
Y-9.0524 A146.929 
Y-9.0389 A146.949 
Y-8.844 A147.301 
Y-8.6721 A147.753 
Y-8.6595 A147.792 
Y-8.4375 A148.564 
Y-8.2513 A149.422 
Y-8.2454 A149.453 
Y-8.034 A150.71 
Y-7.869 A152.033 
Y-7.8659 A152.062 
Y-7.7072 A153.757 
Y-7.5944 A155.487 
Y-7.5281 A157.24 
Y-7.5275 A157.263 
Y-7.5009 A159.319 
Y-7.5306 A161.375 
Y-7.6163 A163.416 
Y-7.7574 A165.428 
Y-7.9196 A166.982 
Y-8.1287 A168.481 
Y-8.364 A169.696 
Y-8.6557 A170.786 
Y-8.8361 A171.258 
Y-9.0376 A171.639 
Y-9.2002 A171.802 
Y-9.3709 A171.822 
Y-9.5143 A171.708 
Y-9.6469 A171.504 
Y-9.663 A171.473 
Y-9.867 A171.014 
Y-10.0448 A170.461 
Y-10.0549 A170.424 
Y-10.2799 A169.514 
Y-10.4649 A168.52 
Y-10.4695 A168.492 
Y-10.6972 A166.875 
Y-10.8634 A165.187 
Y-10.8652 A165.165 
Y-11.0174 A162.786 
Y-11.0916 A160.372 
Y-11.087 A157.947 
Y-11.0038 A155.536 
Y-10.8427 A153.163 
Y-10.6805 A151.608 
Y-10.4713 A150.108 
Y-10.236 A148.894 
Y-9.9443 A147.803 
Y-9.7655 A147.335 
Y-9.5658 A146.956 
Y-9.4322 A146.811 
Y-9.2917 A146.752 
G00 Z2. 
A206.748 
G01 Z-1. F50. 
Y-9.1689 A206.796 F200. 
Y-9.0524 A206.926 
Y-9.0389 A206.946 
Y-8.844 A207.297 
Y-8.6721 A207.749 
Y-8.6595 A207.788 
Y-8.4375 A208.56 
Y-8.2513 A209.418 
Y-8.2454 A209.449 
Y-8.034 A210.707 
Y-7.869 A212.029 
Y-7.8659 A212.058 
Y-7.7072 A213.753 
Y-7.5944 A215.484 
Y-7.5281 A217.237 
Y-7.5275 A217.259 
Y-7.5009 A219.316 
Y-7.5306 A221.372 
Y-7.6163 A223.413 
Y-7.7574 A225.424 
Y-7.9196 A226.978 
Y-8.1287 A228.478 
Y-8.364 A229.692 
Y-8.6557 A230.783 
Y-8.8361 A231.255 
Y-9.0376 A231.635 
Y-9.2002 A231.798 
Y-9.3709 A231.818 
Y-9.5143 A231.704 
Y-9.6469 A231.5 
Y-9.663 A231.469 
Y-9.867 A231.011 
Y-10.0448 A230.457 
Y-10.0549 A230.421 
Y-10.2799 A229.51 
Y-10.4649 A228.517 
Y-10.4695 A228.489 
Y-10.6972 A226.871 
Y-10.8634 A225.183 
Y-10.8652 A225.161 
Y-11.0174 A222.782 
Y-11.0916 A220.368 
Y-11.087 A217.944 
Y-11.0038 A215.533 
Y-10.8427 A213.16 
Y-10.6805 A211.605 
Y-10.4713 A210.104 
Y-10.236 A208.89 
Y-9.9443 A207.799 
Y-9.7655 A207.331 
Y-9.5658 A206.952 
Y-9.4322 A206.807 
Y-9.2917 A206.748 
Z-2. F50. 
Y-9.1689 A206.796 F200. 
Y-9.0524 A206.926 
Y-9.0389 A206.946 
Y-8.844 A207.297 
Y-8.6721 A207.749 
Y-8.6595 A207.788 
Y-8.4375 A208.56 
Y-8.2513 A209.418 
Y-8.2454 A209.449 
Y-8.034 A210.707 
Y-7.869 A212.029 
Y-7.8659 A212.058 
Y-7.7072 A213.753 
Y-7.5944 A215.484 
Y-7.5281 A217.237 
Y-7.5275 A217.259 
Y-7.5009 A219.316 
Y-7.5306 A221.372 
Y-7.6163 A223.413 
Y-7.7574 A225.424 
Y-7.9196 A226.978 
Y-8.1287 A228.478 
Y-8.364 A229.692 
Y-8.6557 A230.783 
Y-8.8361 A231.255 
Y-9.0376 A231.635 
Y-9.2002 A231.798 
Y-9.3709 A231.818 
Y-9.5143 A231.704 
Y-9.6469 A231.5 
Y-9.663 A231.469 
Y-9.867 A231.011 
Y-10.0448 A230.457 
Y-10.0549 A230.421 
Y-10.2799 A229.51 
Y-10.4649 A228.517 
Y-10.4695 A228.489 
Y-10.6972 A226.871 
Y-10.8634 A225.183 
Y-10.8652 A225.161 
Y-11.0174 A222.782 
Y-11.0916 A220.368 
Y-11.087 A217.944 
Y-11.0038 A215.533 
Y-10.8427 A213.16 
Y-10.6805 A211.605 
Y-10.4713 A210.104 
Y-10.236 A208.89 
Y-9.9443 A207.799 
Y-9.7655 A207.331 
Y-9.5658 A206.952 
Y-9.4322 A206.807 
Y-9.2917 A206.748 
Y-9.1689 A206.796 
Y-9.0524 A206.926 
Y-9.0389 A206.946 
Y-8.844 A207.297 
Y-8.6721 A207.749 
Y-8.6595 A207.788 
Y-8.4375 A208.56 
Y-8.2513 A209.418 
Y-8.2454 A209.449 
Y-8.034 A210.707 
Y-7.869 A212.029 
Y-7.8659 A212.058 
Y-7.7072 A213.753 
Y-7.5944 A215.484 
Y-7.5281 A217.237 
Y-7.5275 A217.259 
Y-7.5009 A219.316 
Y-7.5306 A221.372 
Y-7.6163 A223.413 
Y-7.7574 A225.424 
Y-7.9196 A226.978 
Y-8.1287 A228.478 
Y-8.364 A229.692 
Y-8.6557 A230.783 
Y-8.8361 A231.255 
Y-9.0376 A231.635 
Y-9.2002 A231.798 
Y-9.3709 A231.818 
Y-9.5143 A231.704 
Y-9.6469 A231.5 
Y-9.663 A231.469 
Y-9.867 A231.011 
Y-10.0448 A230.457 
Y-10.0549 A230.421 
Y-10.2799 A229.51 
Y-10.4649 A228.517 
Y-10.4695 A228.489 
Y-10.6972 A226.871 
Y-10.8634 A225.183 
Y-10.8652 A225.161 
Y-11.0174 A222.782 
Y-11.0916 A220.368 
Y-11.087 A217.944 
Y-11.0038 A215.533 
Y-10.8427 A213.16 
Y-10.6805 A211.605 
Y-10.4713 A210.104 
Y-10.236 A208.89 
Y-9.9443 A207.799 
Y-9.7655 A207.331 
Y-9.5658 A206.952 
Y-9.4322 A206.807 
Y-9.2917 A206.748 
G00 Z2. 
M05 
M30 
%